!!!!SEGMENT: pl-kk--kk-i-486_haydn-joseph--gott-erhalte-franz-den-keiser.krn
!!!cenid: 18xx:1368
!!!COM: Haydn, Joseph
!!!COM-rismid: pe55803
!!!CDT: 1732/03/31-1809/05/31
!!!CNT: Austrian
!!!OTL: Gott erhalte Franz den Keiser
!!!PDT:
!!!AGN: Sacred
!!!SMS-siglum: PL-Kk
!!!SMS-shelfmark: Kk.I.486
!!!SMS-shelfwork: W
!!!SMS-variant:
!!!SMS-altvar:
!!!NIFC-rismid: 1001141396
!!!URL-scan: http://repozytorium.nifc.pl/skany/pl-kk-nut--i-486
!!!ONB-nifc:
!!!key:
**kern	**text	**text	**dynam	**kern	**text	**text	**dynam	**kern	**text	**text	**dynam	**kern	**text	**kern	**text	**text	**dynam
*part5	*part5	*part5	*part5	*part4	*part4	*part4	*part4	*part3	*part3	*part3	*part3	*part2	*part2	*part1	*part1	*part1	*part1
*staff5	*staff5	*staff5	*	*staff4	*staff4	*staff4	*	*staff3	*staff3	*staff3	*	*staff2	*staff2	*staff1	*staff1	*staff1	*
*Iempty	*	*	*	*Itenor	*	*	*	*Ialto	*	*	*	*Isoprn	*	*Isoprn	*	*	*
*I"Bas.	*	*	*	*I"Tenor.	*	*	*	*I"alt	*	*	*	*I"Sopran.	*	*I"Sopran.	*	*	*
*I'B	*	*	*	*I'T	*	*	*	*I'A	*	*	*	*I'S	*	*I'S	*	*	*
*clefF4	*	*	*	*clefC4	*	*	*	*clefC3	*	*	*	*clefC1	*	*clefC1	*	*	*
*k[f#]	*	*	*	*k[f#]	*	*	*	*k[f#]	*	*	*	*k[f#]	*	*k[f#]	*	*	*
*G:	*	*	*	*G:	*	*	*	*G:	*	*	*	*G:	*	*G:	*	*	*
*M4/4	*	*	*	*M4/4	*	*	*	*M4/4	*	*	*	*M4/4	*	*M4/4	*	*	*
*met(c)	*	*	*	*met(c)	*	*	*	*met(c)	*	*	*	*met(c)	*	*met(c)	*	*	*
=1	=1	=1	=1	=1	=1	=1	=1	=1	=1	=1	=1	=1	=1	=1	=1	=1	=1
!LO:TX:a:t=P:problem=w źródle metrum "C" z kropką	!	!	!	!	!	!	!	!	!	!	!	!	!	!	!	!	!
!LO:TX:a:i:t=moderato.	!	!	!	!LO:TX:a:i:t=moderato	!	!	!	!LO:TX:a:i:t=moderato.	!	!	!	!	!	!LO:TX:a:i:t=Moderato	!	!	!
2r;>	.	.	.	2r;>	.	.	.	2r;>	.	.	.	1ryy	.	2r;>	.	.	.
!LO:TX:a:t=P:problem=pojedyńcze kaudy z prawej strony główki	!	!	!	!LO:TX:a:t=P:problem=pojedyńcze kaudy z prawej strony główki	!	!	!	!LO:TX:a:t=P:problem=pojedyńcze kaudy z prawej strony główki	!	!	!	!	!	!	!	!	!
4.G\	1. Got	2. Las'	.	4.B\	1. Got	2. las'	.	4.d\	1. Got	2. las'	.	.	.	4.g\	1. Got	2. las'	.
8D\	er-	in	.	8d\	er-	in	.	8f#\	er-	in	.	.	.	8a\	er-	in	.
=2	=2	=2	=2	=2	=2	=2	=2	=2	=2	=2	=2	=2	=2	=2	=2	=2	=2
4G\	-hal-	zaj-	.	4d\	-hal-	zaj-	.	4g\	-hal-	saj-	.	1ryy	.	4b\	-hal-	zaj-	.
4D\	-te	-nem	.	4d\	-te	-nem	.	4f#\	-te	-nem	.	.	.	4a\	-te	-nem	.
4F#\	Franc	Ra-	.	4d\	Franc	Ra-	.	4a\	Franc	Ra-	.	.	.	4cc\	Franc	Ra-	.
4G\	den	-the	.	4d\	den	-the	.	4g\	den	-te	.	.	.	4b\	den	-the	.
=3	=3	=3	=3	=3	=3	=3	=3	=3	=3	=3	=3	=3	=3	=3	=3	=3	=3
4D\	Kaj-	waj-	.	4c\	Kaj-	waj-	.	4f#\	Kaj-	waj-	.	1ryy	.	(>8a\L	Kaj-	waj-	.
.	.	.	.	.	.	.	.	.	.	.	.	.	.	8f#\J)	.	.	.
4G\	-zer	-len	.	4B\	-zer	-len	.	4g\	-zer	-len	.	.	.	4g\	-zer	-len	.
4G\	un-	waj-	.	4c\	un-	Waj-	.	4g\	un-	Waj-	.	.	.	4ee\	un-	waj-	.
4G\	-zern	-shait	.	4B\	-zern	-shajt	.	4g\	-zern	-shait	.	.	.	4dd\	-zern	-sheit	.
=4	=4	=4	=4	=4	=4	=4	=4	=4	=4	=4	=4	=4	=4	=4	=4	=4	=4
4D\	gu-	und	.	4A/	gu-	und	.	4f#\	gu-	und	.	1ryy	.	4cc\	gu-	und	.
4G\	-ten	Ge-	.	4G/	-ten	Ge-	.	4g\	-ten	Ge-	.	.	.	4b\	-ten	Ge-	.
!LO:LB:g=original	!	!	!	!LO:LB:g=original	!	!	!	!LO:LB:g=original	!	!	!	!	!	!LO:LB:g=original	!	!	!
4C\	Kaj-	-re-	.	4e\	Kaj-	-re-	.	4e\	Kaj-	-re-	.	.	.	4a\	Kaj-	-re-	.
4C#X\	-zer	-chtig-	.	4A\	-zer	-htig-	.	4e\	-zer	-htig-	.	.	.	(>8b\L	-zer	-chtig-	.
.	.	.	.	.	.	.	.	.	.	.	.	.	.	8g\J)	.	.	.
=5	=5	=5	=5	=5	=5	=5	=5	=5	=5	=5	=5	=5	=5	=5	=5	=5	=5
2D\	Franc	-Kajt	.	2A\	Franc	-Kajt	.	2f#\	Franc	-Kajt	.	1ryy	.	2dd\	Franc	-Kajt	.
4.G\	rajh	las'	.	4.B\	rajh	las'	.	4.d\	raih	las'	.	.	.	4.g\	rajch	las'	.
8D\	o	ihn	.	8d\	o	in	.	8f#\	o	in	.	.	.	8a\	o	ihn	.
=6	=6	=6	=6	=6	=6	=6	=6	=6	=6	=6	=6	=6	=6	=6	=6	=6	=6
4G\	her	zaj-	.	4d\	her	zaj-	.	4g\	Her	zaj-	.	1ryy	.	4b\	Her	zaj-	.
4D\	dem	-ne	.	4d\	dem	-ne	.	4f#\	den	-ne	.	.	.	4a\	dem	-ne	.
4F#\	gu-	zor-	.	4d\	gu-	zor-	.	4a\	gu-	zor-	.	.	.	4cc\	gu-	zor-	.
4G\	-ten	-gen	.	4d\	-ten	-gen	.	4g\	-ten	-gen	.	.	.	4b\	-ten	-gen	.
=7	=7	=7	=7	=7	=7	=7	=7	=7	=7	=7	=7	=7	=7	=7	=7	=7	=7
4D\	Kaj-	taj-	.	4c\	Kaj-	taj-	.	4f#\	Kaj-	taj-	.	1ryy	.	(<8a/L	Kaj-	taj-	.
.	.	.	.	.	.	.	.	.	.	.	.	.	.	8f#/J)	.	.	.
4G\	-zer	-len	.	4B\	-zer	-len	.	4g\	-zer	-len	.	.	.	4g\	-zer	-len	.
4G\	daj-	cwi-	.	4c\	daj-	cwi-	.	4g\	daj-	cwi-	.	.	.	4ee\	daj-	cwi-	.
4G\	-ne	-szen	.	4B\	-ne	-szen	.	4g\	-ne	-szen	.	.	.	4dd\	-ne	-szen	.
!	!	!	!	!LO:LB:g=original	!	!	!	!LO:LB:g=original	!	!	!	!	!	!	!	!	!
=8	=8	=8	=8	=8	=8	=8	=8	=8	=8	=8	=8	=8	=8	=8	=8	=8	=8
4D\	szta-	cajt	.	4A/	szta-	cajt	.	4f#\	szta-	cajt	.	1ryy	.	4cc\	szta-	cajt	.
4G\	-rke	und	.	4G/	-rke	und	.	4g\	-rke	und	.	.	.	4b\	-rke	und	.
!LO:LB:g=original	!	!	!	!	!	!	!	!	!	!	!	!	!	!LO:LB:g=original	!	!	!
4C/	fa-	E-	.	4e\	fa-	E-	.	4e\	fa-	E-	.	.	.	4a\	fa-	E-	.
4C#X/	-ter	-wig-	.	4A/	-ter	-wig-	.	4e\	-ter	-wig-	.	.	.	(>8b\L	-ter	-wig-	.
.	.	.	.	.	.	.	.	.	.	.	.	.	.	8g\J)	.	.	.
=9	=9	=9	=9	=9	=9	=9	=9	=9	=9	=9	=9	=9	=9	=9	=9	=9	=9
2D/	hand	-Kajt	.	2A\	hand	-Kajt	.	2f#\	hand	-Kajt	.	1ryy	.	2dd\	hand	-Kajt	.
4D\	wi	das	.	4d\	wi	das	.	4f#\	wi	das	.	.	.	4a\	wi	das	.
4G\	ajn	er	.	4d\	ajn	er	.	4g\	ajn	er	.	.	.	4b\	ajn	er	.
=10	=10	=10	=10	=10	=10	=10	=10	=10	=10	=10	=10	=10	=10	=10	=10	=10	=10
4D\	cwaj-	hir	.	4d\	cwaj-	hir	.	4f#\	cwaj-	hir	.	1ryy	.	(<8a/L	cwaj-	hir	.
.	.	.	.	.	.	.	.	.	.	.	.	.	.	8f#/J)	.	.	.
4D\	-ter	zajn	.	4d\	-ter	sajn	.	4d\	-ter	zajn	.	.	.	4d/	-ter	zajn	.
4F#\	fa-	rajh	.	4d\	fa-	rajh	.	4a\	fa-	rajh	.	.	.	4cc\	fa-	rajh	.
4G\	-ter	fer-	.	4d\	-ter	fer-	.	4g\	-ter	fer-	.	.	.	4b\	-ter	fer-	.
=11	=11	=11	=11	=11	=11	=11	=11	=11	=11	=11	=11	=11	=11	=11	=11	=11	=11
4D\	sza-	-wal-	.	4d\	sza-	-wal-	.	4f#\	sza-	-wal-	.	1ryy	.	(<8a/L	sza-	-wal-	.
.	.	.	.	.	.	.	.	.	.	.	.	.	.	8f#/J)	.	.	.
4D\	-lte	-te	.	4d\	-lte	-te	.	4d\	-lte	-te	.	.	.	4d/	-lte	-te	.
!	!	!	!	!LO:LB:g=original	!	!	!	!	!	!	!	!	!	!	!	!	!
4BB/	Er	nur	.	4D/	Er	nur	.	4b\	Er	nur	.	.	.	4dd\	Er	nur	.
(>8C/L	an	als	.	(<8E/L	an	als	.	4a\	an	als	.	.	.	4cc\	an	als	.
8D/J)	.	.	.	8F#/J)	.	.	.	.	.	.	.	.	.	.	.	.	.
!LO:LB:g=original	!	!	!	!	!	!	!	!LO:LB:g=original	!	!	!	!	!	!	!	!	!
=12	=12	=12	=12	=12	=12	=12	=12	=12	=12	=12	=12	=12	=12	=12	=12	=12	=12
4.E\	daj-	daj-	.	4.G/	daj-	daj-	.	4.g\	daj-	daj-	.	1ryy	.	4.b\	daj-	daj-	.
8E\	-ner	-nes	.	8G/	-ner	-nes	.	8g\	-ner	-nes	.	.	.	8b\	-ner	-nes	.
!	!	!	!	!	!	!	!	!	!	!	!	!	!	!LO:LB:g=original	!	!	!
4AA/	szta-	Raj-	.	4E/	szta-	Raj-	.	4g\	szta-	Raj-	.	.	.	4cc\	szta-	Raj-	.
.	.	.	.	.	.	.	.	.	.	.	.	.	.	16qqdd/LL	.	.	.
.	.	.	.	.	.	.	.	.	.	.	.	.	.	16qqcc/JJ	.	.	.
4AA/	-tim	-hes	.	4A/	-tim	-hes	.	4g\	-tim	-hes	.	.	.	(>8b\L	-tim	-hes	.
.	.	.	.	.	.	.	.	.	.	.	.	.	.	8cc\J)	.	.	.
=13	=13	=13	=13	=13	=13	=13	=13	=13	=13	=13	=13	=13	=13	=13	=13	=13	=13
2D;>\	land	pfand	.	2A;>/	land	pfand	.	2f#;>\	Land	pfand	.	1ryy	.	2dd;>\	land	pfand	.
!LO:TX:a:t=P:problem=oznaczenie dynamiczne na pięciolinii przed nutą	!	!	!LO:DY:a:rj	!	!	!	!LO:DY:a:t=ff&colon;:rj	!LO:TX:a:t=P:problem=oznaczenie dynamiczne w źródle na pięciolinii przed nutą	!	!	!LO:DY:a:rj	!	!	!	!	!	!LO:DY:a:rj
4.G\	Got	.	fp	4.B\	Got	.	ff	4.g\	Got	.	f	.	.	4.gg\	Got	.	ff
8G\	er-	.	.	8B\	er-	.	.	8g\	er-	.	.	.	.	8ff#\	er-	.	.
=14	=14	=14	=14	=14	=14	=14	=14	=14	=14	=14	=14	=14	=14	=14	=14	=14	=14
4G\	-hal-	.	.	4c\	-hal-	.	.	4g\	-hal-	.	.	1ryy	.	(>8.ff#\L	-hal-	.	.
.	.	.	.	.	.	.	.	.	.	.	.	.	.	16ee\Jk)	.	.	.
4G\	-te	.	.	4B\	-te	.	.	4g\	-te	.	.	.	.	4dd\	-te	.	.
!	!	!	!	!LO:LB:g=original	!	!	!LO:DY:b:rj	!	!	!	!	!	!	!	!	!	!
!LO:TX:a:t=P:problem=oznaczenie dynamiczne na pięciolinii przed nutą	!	!	!LO:DY:a:rj	!LO:TX:a:t=P:problem=oznaczenie dynamiczne przed pięciolinią	!	!	!	!	!	!	!	!	!	!	!	!	!
4.G\	Franz	.	fp	4.c\	Franc	.	fp	4.g\	Franc	.	.	.	.	4.ee\	Franc	.	.
8G\	den	.	.	8B\	den	.	.	8g\	den	.	.	.	.	8dd\	den	.	.
=15	=15	=15	=15	=15	=15	=15	=15	=15	=15	=15	=15	=15	=15	=15	=15	=15	=15
4D\	Kaj-	.	.	4A\	Kaj-	.	.	4f#\	Kaj-	.	.	1ryy	.	(>8.dd\L	Kaj-	.	.
.	.	.	.	.	.	.	.	.	.	.	.	.	.	16cc\Jk)	.	.	.
4G\	-zer	.	.	4B\	-zer	.	.	4g\	-zer	.	.	.	.	4b\	-zer	.	.
!LO:LB:g=original	!	!	!	!	!	!	!	!LO:LB:g=original	!	!	!	!	!	!	!	!	!
4.C/	un-	.	.	4.d\	un-	.	.	4.f#\	un-	.	.	.	.	4.a\	un-	.	.
!LO:TX:a:t=P:problem=oznaczenie dynamiczne na pięciolinii przed nutą (wytarte)	!	!	!LO:DY:a:rj	!	!	!	!	!	!	!	!	!	!	!	!	!	!
8C/	-zern	.	p	8d\	-zern	.	.	8f#\	-zern	.	.	.	.	(>16b\LL	-zern	.	.
.	.	.	.	.	.	.	.	.	.	.	.	.	.	16cc\JJ)	.	.	.
!	!	!	!	!	!	!	!	!	!	!	!	!	!	!LO:LB:g=original	!	!	!
=16	=16	=16	=16	=16	=16	=16	=16	=16	=16	=16	=16	=16	=16	=16	=16	=16	=16
4BB/	gu-	.	.	4G/	gu-	.	.	4g\	gu-	.	.	1ryy	.	(>8dd\L	gu-	.	.
.	.	.	.	.	.	.	.	.	.	.	.	.	.	8ee\J)	.	.	.
4C/	-ten	.	.	4A/	-ten	.	.	4e\	-ten	.	.	.	.	(>8cc\L	-ten	.	.
.	.	.	.	.	.	.	.	.	.	.	.	.	.	8a\J)	.	.	.
4D/	Kaj-	.	.	4B/	Kaj-	.	.	4d\	Kaj-	.	.	.	.	4g\	Kaj-	.	.
4D/	-zer	.	.	4c/	-zer	.	.	4f#\	-zer	.	.	.	.	(>8.b\L	-zer	.	.
.	.	.	.	.	.	.	.	.	.	.	.	.	.	16a\Jk)	.	.	.
=17	=17	=17	=17	=17	=17	=17	=17	=17	=17	=17	=17	=17	=17	=17	=17	=17	=17
2GG/	Franc	.	.	2B/	Franc	.	.	2g\	Franc	.	.	1ryy	.	2g\	Franc	.	.
!	!	!	!LO:DY:a:rj	!LO:LB:g=original	!	!	!LO:DY:a:rj	!LO:TX:a:t=P:problem=oznaczenie dynamiczne w źródle na pięciolinii przed nutą	!	!	!LO:DY:a:rj	!	!	!	!	!	!LO:DY:a:rj
!LO:TX:a:t=P:problem=oznaczenie dynamiczne na pięciolinii przed nutą	!	!	!	!LO:TX:a:t=P:problem=oznaczenie dynamiczne przed pięciolinią	!	!	!	!	!	!	!	!	!	!	!	!	!
4.G\	Got	.	ff	4.B\	Got	.	ff	4.g\	Got	.	ff	.	.	4.gg\	Got	.	ff
8G\	er-	.	.	8B\	er-	.	.	8g\	er-	.	.	.	.	8ff#\	er-	.	.
=18	=18	=18	=18	=18	=18	=18	=18	=18	=18	=18	=18	=18	=18	=18	=18	=18	=18
4G\	-ha-	.	.	4c\	-ha-	.	.	4g\	-ha-	.	.	1ryy	.	(>8.ff#\L	-ha-	.	.
.	.	.	.	.	.	.	.	.	.	.	.	.	.	16ee\Jk)	.	.	.
4G\	-lte	.	.	4B\	-lte	.	.	4g\	-lte	.	.	.	.	4dd\	-lte	.	.
!LO:LB:g=original	!	!	!	!	!	!	!	!LO:LB:g=original	!	!	!	!	!	!	!	!	!
4.G\	Franc	.	.	4.c\	Franc	.	.	4.g\	Franc	.	.	.	.	4.ee\	Franc	.	.
8G\	den	.	.	8B\	den	.	.	8g\	den	.	.	.	.	8dd\	den	.	.
!	!	!	!	!	!	!	!	!	!	!	!	!	!	!LO:LB:g=original	!	!	!
=19	=19	=19	=19	=19	=19	=19	=19	=19	=19	=19	=19	=19	=19	=19	=19	=19	=19
4D\	Kaj-	.	.	4A\	Kaj-	.	.	4f#\	Kaj-	.	.	1ryy	.	(>8.dd\L	Kaj-	.	.
.	.	.	.	.	.	.	.	.	.	.	.	.	.	16cc\Jk)	.	.	.
4G\	-zer	.	.	4B\	-zer	.	.	4g\	-zer	.	.	.	.	4b\	-zer	.	.
4.C/	un-	.	.	4.d\	un-	.	.	4.f#\	un-	.	.	.	.	4.a\	un-	.	.
!LO:TX:a:t=P:problem=oznaczenie dynamiczne na pięciolinii przed nutą (wytarte)	!	!	!LO:DY:a:rj	!	!	!	!	!	!	!	!	!	!	!	!	!	!
8C/	-zern	.	p	8d\	-zern	.	.	8f#\	-zern	.	.	.	.	(>16b\LL	-zern	.	.
.	.	.	.	.	.	.	.	.	.	.	.	.	.	16cc\JJ)	.	.	.
=20	=20	=20	=20	=20	=20	=20	=20	=20	=20	=20	=20	=20	=20	=20	=20	=20	=20
!	!	!	!	!	!	!	!	!LO:TX:i:a:t=ralent	!	!	!	!	!	!	!	!	!
4BB/	na-	.	.	4G/	na-	.	.	4g\	na-	.	.	1ryy	.	(>8dd\L	na-	.	.
.	.	.	.	.	.	.	.	.	.	.	.	.	.	8ee\J)	.	.	.
4C/	-jen	.	.	4A/	-jen	.	.	4e\	-jen	.	.	.	.	(>8cc\L	-jen	.	.
.	.	.	.	.	.	.	.	.	.	.	.	.	.	8a\J)	.	.	.
!	!	!	!	!	!	!	!	!	!	!	!	!	!	!LO:TX:a:t=P:problem=obiegnik z przekreśleniem	!	!	!
4D/	Kaj-	.	.	4B\	Kaj-	.	.	4d\	Kaj-	.	.	.	.	4gS\	Kaj-	.	.
4D/	-zer	.	.	4c\	-zer	.	.	4f#\	-zer	.	.	.	.	(>8.b\L	-zer	.	.
.	.	.	.	.	.	.	.	.	.	.	.	.	.	16a\Jk)	.	.	.
=21	=21	=21	=21	=21	=21	=21	=21	=21	=21	=21	=21	=21	=21	=21	=21	=21	=21
2GG/	Franc	.	.	2B\	Franc	.	.	2g\	Franc	.	.	1ryy	.	2g\	Franc	.	.
2r	.	.	.	2r	.	.	.	2r	.	.	.	.	.	2r	.	.	.
!LO:PB:g=original	!	!	!	!LO:PB:g=original	!	!	!	!LO:PB:g=original	!	!	!	!	!	!LO:PB:g=original	!	!	!
=22||	=22||	=22||	=22||	=22||	=22||	=22||	=22||	=22||	=22||	=22||	=22||	=22||	=22||	=22||	=22||	=22||	=22||
*M4/4	*	*	*	*M4/4	*	*	*	*M4/4	*	*	*	*	*	*M4/4	*	*	*
*met(C.)	*	*	*	*met(C.)	*	*	*	*met(C.)	*	*	*	*	*	*met(C.)	*	*	*
!LO:TX:a:t=P:problem=w źródle metrum "C" z kropką	!	!	!	!LO:TX:a:t=P:problem=w źródle metrum "C" z kropką	!	!	!	!LO:TX:a:t=P:problem=w źródle metrum "C" z kropką	!	!	!	!	!	!LO:TX:a:t=P:problem=w źródle metrum "C" z kropką	!	!	!
2r	.	.	.	2r	.	.	.	2r	.	.	.	1ryy	.	2r;>	.	.	.
!	!	!	!	!	!	!	!	!	!	!	!	!	!	!LO:TX:a:i:t=moderato.	!	!	!
!	!	!	!	!	!	!	!	!	!	!	!	!	!	!LO:TX:a:t=P:problem=pojedyńcze kaudy z prawej strony główki	!	!	!
4.G\	3. Gib	4. al-	.	4.B\	3. Gib	4. al-	.	4.d\	3. Gib	4. al-	.	.	.	4.g\	3. Gib	4. al-	.
8D\	im	-les	.	8d\	ihm	-les	.	8f#\	ihm	-les	.	.	.	8a\	im	-les	.
=23	=23	=23	=23	=23	=23	=23	=23	=23	=23	=23	=23	=23	=23	=23	=23	=23	=23
4G\	fri-	we-	.	4d\	fri-	we-	.	4g\	fri-	weh-	.	1ryy	.	4b\	Fri-	we-	.
4D\	-den	-hselt	.	4d\	-den	-hselt	.	4f#\	-den	-selt	.	.	.	4a\	-den	-hselt	.
4F#\	gib	im	.	4d\	gib	im	.	4a\	gib	im	.	.	.	4cc\	gib	im	.
4G\	im	Ge-	.	4d\	ihm	ge-	.	4g\	ihm	Ge-	.	.	.	4b\	im	ge-	.
=24	=24	=24	=24	=24	=24	=24	=24	=24	=24	=24	=24	=24	=24	=24	=24	=24	=24
4D\	E-	-tri-	.	4c\	Eh-	-tri-	.	4f#\	Eh-	-tri-	.	1ryy	.	(<8a/L	E-	-tri-	.
.	.	.	.	.	.	.	.	.	.	.	.	.	.	8f#/J)	.	.	.
4G\	-re	-be	.	4B\	-re	-be	.	4g\	-re	-be	.	.	.	4g\	-re	-be	.
4G\	wen-	fil	.	4c\	wen-	fil	.	4g\	wen-	fil	.	.	.	4ee\	wen-	fil	.
4G\	-di	be-	.	4B\	-di	be-	.	4g\	-di	be-	.	.	.	4dd\	-di	be-	.
=25	=25	=25	=25	=25	=25	=25	=25	=25	=25	=25	=25	=25	=25	=25	=25	=25	=25
4D\	E-	-weg-	.	4A\	Eh-	-weg-	.	4f#\	Eh-	-weg-	.	1ryy	.	4cc\	E-	-weg-	.
4G\	-re	-ter	.	4G/	-re	-ter	.	4g\	-re	-ter	.	.	.	4b\	-re	-ter	.
!	!	!	!	!	!	!	!	!	!	!	!	!	!	!LO:LB:g=original	!	!	!
4C\	ruft	Er	.	4e\	ruft	Er	.	4e\	ruft	Er	.	.	.	4a\	ruft	er	.
4C#X\	cum	den	.	4A\	cum	den	.	4e\	cum	den	.	.	.	(>8b\L	cum	den	.
.	.	.	.	.	.	.	.	.	.	.	.	.	.	8g\J)	.	.	.
!LO:LB:g=original	!	!	!	!LO:LB:g=original	!	!	!	!LO:LB:g=original	!	!	!	!	!	!	!	!	!
=26	=26	=26	=26	=26	=26	=26	=26	=26	=26	=26	=26	=26	=26	=26	=26	=26	=26
*	*	*	*	*2\right	*	*	*	*2\right	*	*	*	*	*	*2\right	*	*	*
2D\	Krig	welt	.	2A\	Krig	welt	.	2f#\	Krig	welt	.	1ryy	.	2dd\	Krig	welt	.
4.G\	zaj	doch	.	4.B\	zaj	doch	.	4.d\	Zaj	doch	.	.	.	4.g\	zaj	doch	.
8D\	mit	er	.	8d\	mit	er	.	8f#\	mit	er	.	.	.	8a\	mit	er	.
=27	=27	=27	=27	=27	=27	=27	=27	=27	=27	=27	=27	=27	=27	=27	=27	=27	=27
4G\	im	pro-	.	4d\	im	pro-	.	4g\	im	pro-	.	1ryy	.	4b\	im	pro-	.
4D\	und	-bter	.	4d\	und	-bter	.	4f#\	und	-bter	.	.	.	4a\	und	-bter	.
4F#\	zaj-	traj	.	4d\	zaj-	traj	.	4a\	zaj-	traj	.	.	.	4cc\	zaj-	traj	.
4G\	-nem	und	.	4d\	-nem	und	.	4g\	-nem	und	.	.	.	4b\	-nem	und	.
=28	=28	=28	=28	=28	=28	=28	=28	=28	=28	=28	=28	=28	=28	=28	=28	=28	=28
4D\	hee-	li-	.	4c\	He-	Li-	.	4f#\	hee-	li-	.	1ryy	.	8a/L	He-	Li-	.
.	.	.	.	.	.	.	.	.	.	.	.	.	.	8f#/J	.	.	.
4G\	-re	-be	.	4B\	-re	-be	.	4g\	-re	-be	.	.	.	4g\	-re	-be	.
4G\	un-	ward	.	4c\	un-	ward	.	4g\	un-	ward	.	.	.	4ee\	un-	ward	.
4G\	-zern	di	.	4B\	-zern	di	.	4g\	-zern	di	.	.	.	4dd\	-zern	di	.
!	!	!	!	!	!	!	!	!	!	!	!	!	!	!LO:LB:g=original	!	!	!
=29	=29	=29	=29	=29	=29	=29	=29	=29	=29	=29	=29	=29	=29	=29	=29	=29	=29
4D\	fa-	dau-	.	4A\	Fa-	dau-	.	4f#\	fa-	dau-	.	1ryy	.	4cc\	Fa-	dau-	.
4G\	-nen	-er	.	4G/	-nen	-er	.	4g\	-nen	-er	.	.	.	4b\	-nen	-er	.
4C\	szen-	baj-	.	4e\	szen-	baj-	.	4e\	szen-	baj-	.	.	.	4a\	szen-	baj	.
4C#X\	-ke	-ge	.	4A\	-ke	-ge	.	4e\	-ke	-ge	.	.	.	(>8b\L	-ke	ge	.
.	.	.	.	.	.	.	.	.	.	.	.	.	.	8g\J)	.	.	.
!LO:LB:g=original	!	!	!	!LO:LB:g=original	!	!	!	!LO:LB:g=original	!	!	!	!	!	!	!	!	!
=30	=30	=30	=30	=30	=30	=30	=30	=30	=30	=30	=30	=30	=30	=30	=30	=30	=30
2D\	zig	zelt	.	2A\	sig	zelt	.	2f#\	zig	zelt	.	1ryy	.	2dd\	sig	zelt	.
4D\	wo-	un	.	4d\	wo-	un	.	4f#\	wo-	un	.	.	.	4a\	wo-	un	.
4G\	-zi	zre	.	4d\	-zi	zre	.	4g\	-zi	zre	.	.	.	4b\	-zi	zre	.
=31	=31	=31	=31	=31	=31	=31	=31	=31	=31	=31	=31	=31	=31	=31	=31	=31	=31
4D\	wal-	Tra-	.	4d\	wal-	Tra-	.	4f#\	wal-	Tra-	.	1ryy	.	(<8a/L	wal-	Tra-	.
.	.	.	.	.	.	.	.	.	.	.	.	.	.	8f#/J)	.	.	.
4D\	-len	-je	.	4d\	-len	-je	.	4d\	-len	-je	.	.	.	4d/	-len	-je	.
4F#\	da	blaibt	.	4d\	da	blajbt	.	4a\	da	blaibt	.	.	.	4cc\	da	blajbt	.
4G\	ent-	di	.	4d\	ent-	di	.	4g\	ent-	di	.	.	.	4b\	ent-	di	.
=32	=32	=32	=32	=32	=32	=32	=32	=32	=32	=32	=32	=32	=32	=32	=32	=32	=32
4D\	-fal-	al-	.	4d\	-fal-	al-	.	4f#\	-fal-	al-	.	1ryy	.	(<8a/L	-fal-	al-	.
.	.	.	.	.	.	.	.	.	.	.	.	.	.	8f#/J)	.	.	.
4D\	-te	-te	.	4d\	-te	-te	.	4d\	-te	-te	.	.	.	4d/	-te	-te	.
!	!	!	!	!	!	!	!	!	!	!	!	!	!	!LO:LB:g=original	!	!	!
4BB\	ze-	un	.	4D/	ze-	un	.	4b\	ze-	un	.	.	.	4dd\	ze-	un	.
8C\L	-gen	auf	.	(<8E/L	-gen	auf	.	4a\	-gen	auf	.	.	.	4cc\	-gen	auf	.
8D\J	.	.	.	8F#/J)	.	.	.	.	.	.	.	.	.	.	.	.	.
=33	=33	=33	=33	=33	=33	=33	=33	=33	=33	=33	=33	=33	=33	=33	=33	=33	=33
4.E\	zich	le-	.	4.G/	zich	le-	.	4.g\	zich	le-	.	1ryy	.	4.b\	zich	le-	.
8E\	fir	-zlih	.	8G/	fir	-zlih	.	8g\	fir	-zlih	.	.	.	8b\	fir	-zlih	.
!LO:LB:g=original	!	!	!	!	!	!	!	!	!	!	!	!	!	!	!	!	!
4AA/	je-	ist	.	4E/	je-	ist	.	4g\	je-	ist	.	.	.	4cc#X\	je-	ist-	.
.	.	.	.	.	.	.	.	.	.	.	.	.	.	16qqdd/LL	.	.	.
.	.	.	.	.	.	.	.	.	.	.	.	.	.	16qqcc#/JJ	.	.	.
4AA/	-den	ir	.	4A\	-den	ir	.	4g\	-den	ir	.	.	.	(>8b\L	-den	-ir	.
.	.	.	.	.	.	.	.	.	.	.	.	.	.	8cc#\J)	.	.	.
!	!	!	!	!LO:LB:g=original	!	!	!	!LO:LB:g=original	!	!	!	!	!	!	!	!	!
=34	=34	=34	=34	=34	=34	=34	=34	=34	=34	=34	=34	=34	=34	=34	=34	=34	=34
2D;>\	sztand	band	.	2A;>\	sztand	band	.	2f#;>\	sztand	band	.	1ryy	.	2dd;>\	sztand	Band	.
!LO:TX:a:t=P:problem=oznaczenie dynamiczne na pięciolinii przed nutą	!	!	!LO:DY:a:rj	!	!	!	!	!	!	!	!LO:DY:a:t=f&colon;:rj	!	!	!	!	!	!
4.G\	Got	.	fp	4.B\	Got	.	.	4.g\	Got	.	f	.	.	4.gg\	Got	.	.
8G\	er-	.	.	8B\	er-	.	.	8g\	er-	.	.	.	.	8ff#\	er-	.	.
=35	=35	=35	=35	=35	=35	=35	=35	=35	=35	=35	=35	=35	=35	=35	=35	=35	=35
4G\	-hal-	.	.	4c\	-hal-	.	.	4g\	-hal-	.	.	1ryy	.	(>8.ff#\L	-hal-	.	.
.	.	.	.	.	.	.	.	.	.	.	.	.	.	16ee\Jk)	.	.	.
4G\	-te	.	.	4B\	-te	.	.	4g\	-te	.	.	.	.	4dd\	-te	.	.
!LO:TX:a:t=P:problem=oznaczenie dynamiczne na pięciolinii przed nutą	!	!	!LO:DY:a:rj	!	!	!	!	!	!	!	!	!	!	!	!	!	!
4.G\	Franc	.	fp	4.c\	Franc	.	.	4.g\	Franc	.	.	.	.	4.ee\	Franc	.	.
8G\	den	.	.	8B\	den	.	.	8g\	den	.	.	.	.	8dd\	den	.	.
!	!	!	!	!	!	!	!	!	!	!	!	!	!	!LO:LB:g=original	!	!	!
=36	=36	=36	=36	=36	=36	=36	=36	=36	=36	=36	=36	=36	=36	=36	=36	=36	=36
4D\	Kaj-	.	.	4A\	Kaj-	.	.	4f#\	Kaj-	.	.	1ryy	.	(>8.dd\L	Kaj-	.	.
.	.	.	.	.	.	.	.	.	.	.	.	.	.	16cc\Jk)	.	.	.
4G\	-zer	.	.	4B\	-zer	.	.	4g\	-zer	.	.	.	.	4b\	-zer	.	.
4.C/	un-	.	.	4.d\	un-	.	.	4.f#\	un-	.	.	.	.	4.a\	un-	.	.
!LO:TX:a:t=P:problem=oznaczenie dynamiczne na pięciolinii przed nutą	!	!	!LO:DY:a:rj	!	!	!	!	!	!	!	!	!	!	!	!	!	!
8C/	-zern	.	p	8d\	-zern	.	.	8f#\	-zern	.	.	.	.	(>16b\LL	-zern	.	.
.	.	.	.	.	.	.	.	.	.	.	.	.	.	16cc\JJ)	.	.	.
!LO:LB:g=original	!	!	!	!	!	!	!	!	!	!	!	!	!	!	!	!	!
=37	=37	=37	=37	=37	=37	=37	=37	=37	=37	=37	=37	=37	=37	=37	=37	=37	=37
4BB/	gu-	.	.	4G/	gu-	.	.	4g\	gu-	.	.	1ryy	.	8dd\L	gu-	.	.
.	.	.	.	.	.	.	.	.	.	.	.	.	.	8ee\J	.	.	.
4C/	-ten	.	.	4A\	-ten	.	.	4e\	-ten	.	.	.	.	8cc\L	-ten	.	.
.	.	.	.	.	.	.	.	.	.	.	.	.	.	8a\J	.	.	.
!	!	!	!	!	!	!	!	!LO:TX:a:t=P:problem=trudny do zidentyfikowania znak nad nutą	!	!	!	!	!	!	!	!	!
4D/	Kaj-	.	.	4B\	Kaj-	.	.	4d\	Kaj-	.	.	.	.	4g\	Kaj-	.	.
4D/	-zer	.	.	4c\	-zer	.	.	4f#\	-zer	.	.	.	.	8.b\L	-zer	.	.
.	.	.	.	.	.	.	.	.	.	.	.	.	.	16a\Jk	.	.	.
!	!	!	!	!LO:LB:g=original	!	!	!	!LO:LB:g=original	!	!	!	!	!	!	!	!	!
=38	=38	=38	=38	=38	=38	=38	=38	=38	=38	=38	=38	=38	=38	=38	=38	=38	=38
*	*	*	*	*	*	*	*	*^	*	*	*	*	*	*	*	*	*
2GG/	Franc	.	.	2B\	Franc	.	.	2g/	2d\	Franc	.	.	1ryy	.	2g\	Franc	.	.
!LO:TX:a:t=P:problem=oznaczenie dynamiczne na pięciolinii przed nutą	!	!	!LO:DY:rj	!	!	!	!	!	!	!	!	!	!	!	!	!	!	!
4.G\	Got	.	ff	4.B\	Got	.	.	4.g\	4ryy	Got	.	.	.	.	4.gg\	Got	.	.
.	.	.	.	.	.	.	.	.	4ryy	.	.	.	.	.	.	.	.	.
8G\	er-	.	.	8B\	er-	.	.	8g\	.	er-	.	.	.	.	8ff#\	er-	.	.
*	*	*	*	*	*	*	*	*v	*v	*	*	*	*	*	*	*	*	*
=39	=39	=39	=39	=39	=39	=39	=39	=39	=39	=39	=39	=39	=39	=39	=39	=39	=39
4G\	-ha-	.	.	4c\	-ha-	.	.	4g\	-ha-	.	.	1ryy	.	(>8.ff#\L	-ha-	.	.
.	.	.	.	.	.	.	.	.	.	.	.	.	.	16ee\Jk)	.	.	.
4G\	-lte	.	.	4B\	-lte	.	.	4g\	-lte	.	.	.	.	4dd\	-lte	.	.
4.G\	Franc	.	.	4.c\	Franc	.	.	4.g\	Franc	.	.	.	.	4.ee\	Franc	.	.
8G\	den	.	.	8B\	den	.	.	8g\	den	.	.	.	.	8dd\	den	.	.
!	!	!	!	!	!	!	!	!	!	!	!	!	!	!LO:LB:g=original	!	!	!
=40	=40	=40	=40	=40	=40	=40	=40	=40	=40	=40	=40	=40	=40	=40	=40	=40	=40
4D\	Kaj-	.	.	4A\	Kaj-	.	.	4f#\	Kaj-	.	.	1ryy	.	(>8.dd\L	Kaj-	.	.
.	.	.	.	.	.	.	.	.	.	.	.	.	.	16cc\Jk)	.	.	.
4G\	-zer	.	.	4B\	-zer	.	.	4g\	-zer	.	.	.	.	4b\	-zer	.	.
!LO:LB:g=original	!	!	!	!	!	!	!	!	!	!	!	!	!	!	!	!	!
4.C/	un-	.	.	4.d\	un-	.	.	4.f#\	un-	.	.	.	.	4.a\	un-	.	.
!LO:TX:a:t=P:problem=oznaczenie dynamiczne na pięciolinii przed nutą	!	!	!LO:DY:rj	!	!	!	!	!	!	!	!	!	!	!	!	!	!
8C/	-zern	.	p	8d\	-zern	.	.	8f#\	-zern	.	.	.	.	16b\LL	-zern	.	.
.	.	.	.	.	.	.	.	.	.	.	.	.	.	16cc\JJ	.	.	.
=41	=41	=41	=41	=41	=41	=41	=41	=41	=41	=41	=41	=41	=41	=41	=41	=41	=41
!	!	!	!	!	!	!	!	!	!	!	!	!LO:TX:a:t=P:problem=kaudy z prawej strony	!	!	!	!	!
4BB/	na-	.	.	4G/	na-	.	.	4g\	na-	.	.	16dd\LL	na-	(>8dd\L	na-	.	.
.	.	.	.	.	.	.	.	.	.	.	.	32ee\L	.	.	.	.	.
.	.	.	.	.	.	.	.	.	.	.	.	32ff#\JJJ	.	.	.	.	.
!	!	!	!	!	!	!	!	!	!	!	!	!LO:N:vis=16	!	!	!	!	!
.	.	.	.	.	.	.	.	.	.	.	.	32gg\LLL	.	8ee\J)	.	.	.
!	!	!	!	!	!	!	!	!	!	!	!	!LO:N:vis=16	!	!	!	!	!
.	.	.	.	.	.	.	.	.	.	.	.	32aa\	.	.	.	.	.
!	!	!	!	!	!	!	!	!	!	!	!	!LO:N:vis=16	!	!	!	!	!
.	.	.	.	.	.	.	.	.	.	.	.	32bb\	.	.	.	.	.
!	!	!	!	!	!	!	!	!	!	!	!	!LO:N:vis=16	!	!	!	!	!
.	.	.	.	.	.	.	.	.	.	.	.	32ff#\JJJ	.	.	.	.	.
4C/	-jen	.	.	4A\	-jen	.	.	4e\	-jen	.	.	16.gg\LL	.	(>8cc\L	-jen	.	.
.	.	.	.	.	.	.	.	.	.	.	.	32ee\K	.	.	.	.	.
.	.	.	.	.	.	.	.	.	.	.	.	(>16cc\	-jen	8a\J)	.	.	.
.	.	.	.	.	.	.	.	.	.	.	.	16a\JJ)	.	.	.	.	.
!	!	!	!	!	!	!	!	!	!	!	!	!	!	!LO:TX:a:t=P:problem= w źródle obiegnik z przekreśleniem	!	!	!
4D/	Kaj-	.	.	4B\	Kaj-	.	.	4d\	Kaj-	.	.	8g\L	Kaj-	4gS\	Kai-	.	.
.	.	.	.	.	.	.	.	.	.	.	.	(>32a\LL	.	.	.	.	.
.	.	.	.	.	.	.	.	.	.	.	.	32g\	.	.	.	.	.
.	.	.	.	.	.	.	.	.	.	.	.	32f#\	.	.	.	.	.
.	.	.	.	.	.	.	.	.	.	.	.	32g\JJJ)	.	.	.	.	.
4D/	-zer	.	.	4c\	-zer	.	.	4f#\	-zer	.	.	8.b\L	-zer	(>8.b\L	-zer	.	.
.	.	.	.	.	.	.	.	.	.	.	.	16a\Jk	.	16a\Jk)	.	.	.
!	!	!	!	!LO:LB:g=original	!	!	!	!LO:LB:g=original	!	!	!	!	!	!	!	!	!
=42	=42	=42	=42	=42	=42	=42	=42	=42	=42	=42	=42	=42	=42	=42	=42	=42	=42
*	*	*	*	*	*	*	*	*^	*	*	*	*	*	*	*	*	*
*	*	*	*	*	*	*	*	*	*	*	*	*	*2\right	*	*	*	*	*
2GG/	Franc	.	.	2B\	Franc	.	.	2g/	2d\	Franc	.	.	2g\	Franc	2g\	Franc	.	.
2r	.	.	.	2r	.	.	.	2r	4ryy	.	.	.	2r	.	2r	.	.	.
.	.	.	.	.	.	.	.	.	4ryy	.	.	.	.	.	.	.	.	.
*	*	*	*	*	*	*	*	*v	*v	*	*	*	*	*	*	*	*	*
==	==	==	==	==	==	==	==	==	==	==	==	==	==	==	==	==	==
*-	*-	*-	*-	*-	*-	*-	*-	*-	*-	*-	*-	*-	*-	*-	*-	*-	*-
!!!system-decoration: [s1,s2,s3,s4,s5]
!!!RDF**kern: > = above
!!!RDF**kern: < = below
!!!EED: Mateusz Mrugas
!!!EST: 2021-01-16
!!!AIN: 1 alto 1 empty 2 soprn 1 tenor
!!!ENC: Tomasz Grochalski
!!!END: 2021-01-10
